X:590
T: Coming Home from the Bog
T: Ag Teacht Abhaile \'on bPortach
S: B.Breathnach: "Ceol Rince na hEireann" II/141
Z: B.Black
L: 1/8
M: 4/4
R: reel
K: G
GE|D2 DE GABG|cGBG AGEG|(3DED DE GABG|AGEF G2 GE|
D2 DE GABG|cGBG AGEG|(3DED DE GABG|AGEF G2||
zA|Bd d2 edBc|d2 BG AGED|Bd d2 edBc|dedc BGGA|
Bd d2 edBc|d2 BG AGED|gggd egge|dBAB G3z||

